src/assets/icons/calendar-events,simple,date-and-time.svg

<svg width="48" height="48" viewBox="0 0 48 48" fill="none" xmlns="http://www.w3.org/2000/svg">
<rect opacity="0.2" x="5" y="5" width="38" height="38" rx="4" fill="black"/>
<path d="M5 13C5 9.22876 5 7.34315 6.17157 6.17157C7.34315 5 9.22876 5 13 5H35C38.7712 5 40.6569 5 41.8284 6.17157C43 7.34315 43 9.22876 43 13V15H5V13Z" fill="black"/>
<path fill-rule="evenodd" clip-rule="evenodd" d="M39 48C43.9706 48 48 43.9706 48 39C48 34.0294 43.9706 30 39 30C34.0294 30 30 34.0294 30 39C30 43.9706 34.0294 48 39 48ZM40 32.25C40 31.6977 39.5523 31.25 39 31.25C38.4477 31.25 38 31.6977 38 32.25V39C38 39.5523 38.4477 40 39 40H43.05C43.6023 40 44.05 39.5523 44.05 39C44.05 38.4477 43.6023 38 43.05 38H40V32.25Z" fill="black"/>
<path opacity="0.2" fill-rule="evenodd" clip-rule="evenodd" d="M42.748 40H43.0501C43.6023 40 44.0501 39.5523 44.0501 39C44.0501 38.4477 43.6023 38 43.0501 38H42.9651C42.9325 38.7844 42.8696 39.4416 42.748 40Z" fill="black"/>
</svg>

<svg xmlns="http://www.w3.org/2000/svg" width="48" height="48" fill="none" viewBox="0 0 48 48">
  <rect width="38" height="38" x="5" y="5" fill="#000" opacity=".2" rx="4"/>
  <path fill="#000" d="M5 13c0-3.771 0-5.657 1.172-6.828C7.343 5 9.229 5 13 5h22c3.771 0 5.657 0 6.828 1.172C43 7.343 43 9.229 43 13v2H5v-2z"/>
  <path fill="#000" fill-rule="evenodd" d="M39 48a9 9 0 100-18 9 9 0 000 18zm1-15.75a1 1 0 10-2 0V39a1 1 0 001 1h4.05a1 1 0 100-2H40v-5.75z" clip-rule="evenodd"/>
  <path fill="#000" fill-rule="evenodd" d="M42.748 40h.302a1 1 0 000-2h-.085c-.033.784-.095 1.442-.217 2z" clip-rule="evenodd" opacity=".2"/>
</svg>
